packages/core/src/svg/icon-tree.svg

<?xml version="1.0" encoding="UTF-8"?>
<svg xmlns="http://www.w3.org/2000/svg" width="100%" height="100%" viewBox="0 0 24 24">
  <path d="M17.250564,11.2321141 C17.250564,10.8655334 17.497019,10.5435063 17.896874,10.0494683 C18.3886561,9.44432807 19,8.69086368 19,7.56461489 C19,5.62455688 17.3537705,4.8519175 16.469465,4.43627135 C16.2686916,4.3420883 16.0414115,4.23606188 15.9624557,4.17346117 C15.7690139,4.02288108 15.5626007,3.68111505 15.3437802,3.32017403 C14.7854496,2.39582662 13.940622,1 12,1 C10.0283597,1 9.21737029,2.40767 8.68159845,3.33765711 C8.4751853,3.69521431 8.2811795,4.03190461 8.09788914,4.1785369 C8.0206252,4.24057364 7.77247825,4.35505962 7.57339671,4.44755076 C6.673864,4.86263294 5,5.63640026 5,7.56461489 C5,8.69086368 5.61134386,9.44432807 6.10256204,10.0494683 C6.50354496,10.5435063 6.74887206,10.8655334 6.74887206,11.2321141 C6.74887206,11.5090235 6.66089268,11.6455044 6.44150822,11.9539961 C6.15162746,12.3640026 5.75402836,12.9240251 5.75402836,13.9662423 C5.75402836,15.6564615 7.1741057,16.7088302 8.54737351,17.7279246 C9.93699646,18.7577345 11.2493555,19.7305833 11.2493555,21.2645827 L11.2493555,21.2668385 L11.2493555,22.7540284 L12.7506445,22.7540284 L12.7506445,21.2645827 C12.7506445,19.7305833 14.0630035,18.7577345 15.4526265,17.7279246 C16.8253303,16.7088302 18.2459716,15.6564615 18.2459716,13.9662423 C18.2459716,12.9240251 17.8489365,12.3640026 17.5579278,11.9539961 C17.3391073,11.6455044 17.250564,11.5090235 17.250564,11.2321141 M16.3341121,12.8213825 C16.5726716,13.1586368 16.7452465,13.402272 16.7452465,13.9662423 C16.7452465,14.9013052 15.7323558,15.6519497 14.5592975,16.5227199 C13.9479536,16.9755881 13.3050274,17.4521431 12.7506445,18.0042701 L12.7506445,16.0771834 L15.0347245,13.7919755 L13.9738962,12.7311473 L12.7506445,13.9549629 L12.7506445,11.0764583 L15.5304544,8.29552046 L14.4696262,7.23412826 L12.7506445,8.95423783 L12.7506445,5.26417983 L11.2493555,5.26417983 L11.2493555,8.95423783 L9.53037383,7.23412826 L8.4695456,8.29552046 L11.2493555,11.0764583 L11.2493555,13.9549629 L10.0255398,12.7311473 L8.96527554,13.7919755 L11.2493555,16.0771834 L11.2493555,18.0042701 C10.6944086,17.4521431 10.0520464,16.9755881 9.44126652,16.5227199 C8.26764422,15.6519497 7.25418949,14.9013052 7.25418949,13.9662423 C7.25418949,13.402272 7.42676442,13.1586368 7.66532388,12.8213825 C7.92587818,12.4548018 8.24903319,11.9979858 8.24903319,11.2321141 C8.24903319,10.3139704 7.72792459,9.67160812 7.26772478,9.10481792 C6.85602643,8.59668063 6.50016113,8.15903964 6.50016113,7.56461489 C6.50016113,7.01530777 6.62592652,6.53818885 8.20278762,5.80897519 C8.53158234,5.65670319 8.8158234,5.52586207 9.03520786,5.34990332 C9.43901063,5.02674831 9.70182082,4.56993232 9.98042217,4.0871737 C10.5494683,3.09966162 10.9696262,2.5007251 12,2.5007251 C13.0213503,2.5007251 13.4595553,3.10304544 14.0601837,4.0967612 C14.3523203,4.57839188 14.6286658,5.03520786 15.0381083,5.35497905 C15.2507251,5.52135031 15.5203029,5.64824364 15.8316146,5.79431196 C16.8078472,6.25338382 17.4992749,6.64816307 17.4992749,7.56461489 C17.4992749,8.15903964 17.1439736,8.59668063 16.7317112,9.10481792 C16.2726394,9.67160812 15.7504028,10.3139704 15.7504028,11.2321141 C15.7504028,11.9979858 16.0741218,12.4548018 16.3341121,12.8213825" />
</svg>

<?xml version="1.0" encoding="UTF-8"?><svg viewBox="0 0 24 24" xmlns="http://www.w3.org/2000/svg"><path d="m17.251 11.232c0-0.36658 0.24646-0.68861 0.64631-1.1826 0.49178-0.60514 1.1031-1.3586 1.1031-2.4849 0-1.9401-1.6462-2.7127-2.5305-3.1283-0.20077-0.094183-0.42805-0.20021-0.50701-0.26281-0.19344-0.15058-0.39986-0.49235-0.61868-0.85329-0.55833-0.92435-1.4032-2.3202-3.3438-2.3202-1.9716 0-2.7826 1.4077-3.3184 2.3377-0.20641 0.35756-0.40042 0.69425-0.58371 0.84088-0.077264 0.062037-0.32541 0.17652-0.52449 0.26901-0.89953 0.41508-2.5734 1.1888-2.5734 3.1171 0 1.1262 0.61134 1.8797 1.1026 2.4849 0.40098 0.49404 0.64631 0.81607 0.64631 1.1826 0 0.27691-0.087979 0.41339-0.30736 0.72188-0.28988 0.41001-0.68748 0.97003-0.68748 2.0122 0 1.6902 1.4201 2.7426 2.7933 3.7617 1.3896 1.0298 2.702 2.0027 2.702 3.5367v0.0022558 1.4872h1.5013v-1.4894c0-1.534 1.3124-2.5068 2.702-3.5367 1.3727-1.0191 2.7933-2.0715 2.7933-3.7617 0-1.0422-0.39704-1.6022-0.68804-2.0122-0.21882-0.30849-0.30736-0.44497-0.30736-0.72188m-0.91645 1.5893c0.23856 0.33725 0.41113 0.58089 0.41113 1.1449 0 0.93506-1.0129 1.6857-2.1859 2.5565-0.61134 0.45287-1.2543 0.92942-1.8087 1.4816v-1.9271l2.2841-2.2852-1.0608-1.0608-1.2233 1.2238v-2.8785l2.7798-2.7809-1.0608-1.0614-1.719 1.7201v-3.6901h-1.5013v3.6901l-1.719-1.7201-1.0608 1.0614 2.7798 2.7809v2.8785l-1.2238-1.2238-1.0603 1.0608 2.2841 2.2852v1.9271c-0.55495-0.55213-1.1973-1.0287-1.8081-1.4816-1.1736-0.87077-2.1871-1.6214-2.1871-2.5565 0-0.56397 0.17257-0.80761 0.41113-1.1449 0.26055-0.36658 0.58371-0.8234 0.58371-1.5893 0-0.91814-0.52111-1.5605-0.98131-2.1273-0.4117-0.50814-0.76756-0.94578-0.76756-1.5402 0-0.54931 0.12577-1.0264 1.7026-1.7556 0.32879-0.15227 0.61304-0.28311 0.83242-0.45907 0.4038-0.32316 0.66661-0.77997 0.94521-1.2627 0.56905-0.98751 0.9892-1.5864 2.0196-1.5864 1.0214 0 1.4596 0.60232 2.0602 1.596 0.29214 0.48163 0.56848 0.93845 0.97792 1.2582 0.21262 0.16637 0.48219 0.29326 0.79351 0.43933 0.97623 0.45907 1.6677 0.85385 1.6677 1.7703 0 0.59442-0.3553 1.0321-0.76756 1.5402-0.45907 0.56679-0.98131 1.2092-0.98131 2.1273 0 0.76587 0.32372 1.2227 0.58371 1.5893"/></svg>
